X:392
T:Mrs Oliphant of Condie's
B:Kerr's Merry Melodies, Bk 2 (c1880s)
Z:Nigel Gatherer
M:4/4
L:1/8
K:G
d|B<GG>d B/c/d/B/ GB|E<AA>G F<DD>d|B<GG>d B/c/d/B/ Gg|
e<gd>c B<GG::d|g>ab>g a<eg>d|e<g dc/B/ a<AA>d|1g>ab>g a<eg>d|
e<gd>c B<GG:|2b<ga<e g<d ed/c/|B<gd>c B<GG|]
<end>
<start>
